X: 34114
T: Reel Des Voyageurs
R: reel
M: 4/4
K: Amajor
|:A2cA eAcA|Acec cdcB|A2ce effg|1 aaed cABc:|2 aaed c2eg||
|:agae agae|f2ed cefg|1 aAgA fAed|ffed cefg:|2 aAce ffec|ffed cABc||

